public/logo.svg

<svg width="502" height="506" fill="none" xmlns="http://www.w3.org/2000/svg"><ellipse cx="251.512" cy="252.537" rx="250.488" ry="252.537" fill="#00C39D"/><mask id="a" maskUnits="userSpaceOnUse" x="0" y="0" width="501" height="506"><ellipse cx="250.488" cy="252.537" rx="250.488" ry="252.537" fill="#00C39D"/></mask><g mask="url(#a)"><path opacity=".8" d="M89.643 297.614l118.841-82.471 153.161-43.541L546.499 435.89 301.542 611.71l-211.9-314.096z" fill="#005141" fill-opacity=".8"/></g><g clip-path="url(#clip0)" fill="#fff"><path fill-rule="evenodd" clip-rule="evenodd" d="M168.035 171.507v44.628l-77.88 49.707v32.417l77.88 49.706v29.413c0 5.732 2.28 11.229 6.337 15.282a21.643 21.643 0 0015.297 6.33h150.439c5.738 0 11.24-2.277 15.297-6.33a21.6 21.6 0 006.336-15.282V171.507H168.035zm-38.659 109.959l38.659-23.318v47.74l-38.659-24.422zm206.924-8.212v15.842l-53.608 34.146v-21.028l34.463-20.768v-.541l-34.463-20.769v-21.028l53.608 34.146zm-137.675 63.862h19.471l45.126-118.798h-19.469l-45.128 118.798z"/><path d="M228.241 132.737c0 3.22 3.721 6.483 9.908 8.644l-5.949 12.621c-13.348-5.684-18.734-13.356-18.734-21.503 0-10.374 8.912-14.329 8.912-21.007 0-3.349-3.72-6.483-9.907-8.644l5.883-12.708c13.349 5.77 18.908 13.443 18.908 21.612 0 10.373-9.021 14.328-9.021 20.985zM302.877 132.737c0 3.22 3.72 6.483 9.887 8.644l-5.928 12.621c-13.349-5.684-18.8-13.356-18.8-21.503 0-10.374 8.913-14.329 8.913-21.007 0-3.349-3.721-6.483-9.908-8.644l5.949-12.708c13.348 5.684 18.8 13.356 18.8 21.612 0 10.373-8.913 14.328-8.913 20.985zM266.835 113.2c0 3.198 3.721 6.483 9.908 8.644l-5.949 12.6c-13.348-5.684-18.799-13.335-18.799-21.504 0-10.373 8.912-14.328 8.912-21.006 0-3.328-3.72-6.483-9.907-8.645l5.948-12.6c13.348 5.685 18.8 13.335 18.8 21.612 0 10.266-8.913 14.221-8.913 20.899z"/></g><defs><clipPath id="clip0"><path fill="#fff" transform="translate(90.155 70.69)" d="M0 0h272.514v328.861H0z"/></clipPath></defs></svg>

<svg width="502" height="506" viewBox="0 0 502 506" fill="none" xmlns="http://www.w3.org/2000/svg">
<ellipse cx="251.512" cy="252.537" rx="250.488" ry="252.537" fill="#00C39D"/>
<mask id="mask0" mask-type="alpha" maskUnits="userSpaceOnUse" x="0" y="0" width="501" height="506">
<ellipse cx="250.488" cy="252.537" rx="250.488" ry="252.537" fill="#00C39D"/>
</mask>
<g mask="url(#mask0)">
<path opacity="0.8" d="M89.6429 297.614L208.484 215.143L361.645 171.602L546.499 435.89L301.542 611.71L89.6429 297.614Z" fill="#005141" fill-opacity="0.8"/>
</g>
<g clip-path="url(#clip0)">
<path fill-rule="evenodd" clip-rule="evenodd" d="M168.035 171.507V216.135L90.155 265.842V298.259L168.035 347.965V377.378C168.035 383.11 170.315 388.607 174.372 392.66C178.429 396.713 183.931 398.99 189.669 398.99H340.108C345.846 398.99 351.348 396.713 355.405 392.66C359.462 388.607 361.741 383.11 361.741 377.378V171.507H168.035ZM129.376 281.466L168.035 258.148V305.888L129.376 281.466ZM336.3 273.254V289.096L282.692 323.242V302.214L317.155 281.446V280.905L282.692 260.136V239.108L336.3 273.254ZM198.625 337.116H218.096L263.222 218.318H243.753L198.625 337.116Z" fill="white"/>
<path d="M228.241 132.737C228.241 135.957 231.962 139.22 238.149 141.381L232.2 154.002C218.852 148.318 213.466 140.646 213.466 132.499C213.466 122.125 222.378 118.17 222.378 111.492C222.378 108.143 218.658 105.009 212.471 102.848L218.354 90.1403C231.703 95.9106 237.262 103.583 237.262 111.752C237.262 122.125 228.241 126.08 228.241 132.737Z" fill="white"/>
<path d="M302.877 132.737C302.877 135.957 306.597 139.22 312.764 141.381L306.836 154.002C293.487 148.318 288.036 140.646 288.036 132.499C288.036 122.125 296.949 118.17 296.949 111.492C296.949 108.143 293.228 105.009 287.041 102.848L292.99 90.1403C306.338 95.8241 311.79 103.496 311.79 111.752C311.79 122.125 302.877 126.08 302.877 132.737Z" fill="white"/>
<path d="M266.835 113.2C266.835 116.398 270.556 119.683 276.743 121.844L270.794 134.444C257.446 128.76 251.995 121.109 251.995 112.94C251.995 102.567 260.907 98.6119 260.907 91.9339C260.907 88.6057 257.187 85.4505 251 83.2893L256.948 70.6898C270.296 76.3736 275.748 84.0241 275.748 92.3014C275.748 102.567 266.835 106.522 266.835 113.2Z" fill="white"/>
</g>
<defs>
<clipPath id="clip0">
<rect width="272.514" height="328.861" fill="white" transform="translate(90.155 70.6898)"/>
</clipPath>
</defs>
</svg>
